packages/core/src/svgs/tokens/mono/LUNR.svg

<svg width="24" height="24" viewBox="0 0 24 24" fill="none" xmlns="http://www.w3.org/2000/svg">
<path d="M21.0118 17.2924C20.986 17.2923 20.9604 17.2864 20.9372 17.275C20.914 17.2634 20.8937 17.247 20.8779 17.2265C20.862 17.2062 20.851 17.1824 20.8457 17.1572C20.8403 17.1319 20.8407 17.1057 20.8471 17.0806C21.0236 16.3983 21.1176 15.6806 21.1176 14.9394C21.1176 10.0689 17.0352 6.11597 12 6.11597C6.9647 6.11597 2.88235 10.0689 2.88235 14.9394C2.88235 15.6806 2.97648 16.3983 3.15295 17.0806C3.15918 17.1057 3.15965 17.1319 3.15429 17.1572C3.14894 17.1824 3.13792 17.2062 3.12205 17.2265C3.1062 17.247 3.08591 17.2634 3.06273 17.275C3.03955 17.2864 3.01407 17.2923 2.98824 17.2924C2.95673 17.2916 2.92612 17.2817 2.90006 17.264C2.87399 17.2463 2.85355 17.2214 2.84117 17.1925C2.17408 15.6705 1.89677 14.0062 2.03432 12.3501C2.17189 10.6941 2.71999 9.09841 3.62909 7.70736C4.53816 6.31631 5.77959 5.17373 7.24112 4.38291C8.70265 3.5921 10.3383 3.17798 12 3.17798C13.6618 3.17798 15.2973 3.5921 16.7589 4.38291C18.2204 5.17373 19.4617 6.31631 20.3709 7.70736C21.28 9.09841 21.8282 10.6941 21.9657 12.3501C22.1032 14.0062 21.826 15.6705 21.1588 17.1925C21.1464 17.2214 21.126 17.2463 21.0999 17.264C21.0738 17.2817 21.0432 17.2916 21.0118 17.2924ZM12 20.8219C13.404 20.8219 14.7506 20.2641 15.7435 19.2712C16.7363 18.2784 17.2941 16.9318 17.2941 15.5277C17.2941 14.1236 16.7363 12.7771 15.7435 11.7842C14.7506 10.7913 13.404 10.2337 12 10.2337C10.5959 10.2337 9.24934 10.7913 8.25649 11.7842C7.26366 12.7771 6.70588 14.1236 6.70588 15.5277C6.70588 16.9318 7.26366 18.2784 8.25649 19.2712C9.24934 20.2641 10.5959 20.8219 12 20.8219Z" fill="white"/>
</svg>

<svg xmlns="http://www.w3.org/2000/svg" width="24" height="24" fill="none" viewBox="0 0 24 24">
    <path fill="#fff" d="M21.012 17.292a.17.17 0 0 1-.165-.211c.177-.683.27-1.4.27-2.142 0-4.87-4.082-8.823-9.117-8.823s-9.118 3.953-9.118 8.823c0 .742.094 1.46.271 2.142a.17.17 0 0 1-.165.211.16.16 0 0 1-.147-.1 10 10 0 1 1 18.318 0 .17.17 0 0 1-.147.1M12 20.822a5.294 5.294 0 1 0 0-10.588 5.294 5.294 0 0 0 0 10.588"/>
</svg>
